X: 33
T:Rag Dolly Anna
M:4/4
L:1/4
R:Reel
N:http://www.lesession.co.uk
Z:Steve Mansfield 1998-2001
K:D
B | AB AB | A B/(A/ A2) | AB AB | A/ c A/ cB | 
A/B/c/A/ BA | A/B/c/A/ BA | A/B/c/d/ e/g/f/e/ | d3 :| f | 
aa ag | ff f>g | aa gf | g3 f | 
g>a g/f/e/f/ | g>a g/f/e/f/ | g/f/e/d/ c/A/B/c/ | de fg | 
aa ag | ff f>e | dd ef | g3 f | 
g>a g/f/e/f/ | g>a g/f/e/f/ | g/f/e/d/ c/A/B/c/ | df d2 ||

